svgs/sharp-regular/gallery-thumbnails.svg

<svg xmlns="http://www.w3.org/2000/svg" viewBox="0 0 576 512"><!--! Font Awesome Pro 6.6.0 by @fontawesome - https://fontawesome.com License - https://fontawesome.com/license (Commercial License) Copyright 2024 Fonticons, Inc. --><path d="M528 48l0 256L48 304 48 48l480 0zM48 0L0 0 0 48 0 304l0 48 48 0 480 0 48 0 0-48 0-256 0-48L528 0 48 0zM96 416L0 416l0 96 96 0 0-96zm160 0l-96 0 0 96 96 0 0-96zm64 0l0 96 96 0 0-96-96 0zm256 96l0-96-96 0 0 96 96 0z"/></svg>

<svg xmlns="http://www.w3.org/2000/svg" viewBox="0 0 576 512"><!--! Font Awesome Pro 6.4.0 by @fontawesome - https://fontawesome.com License - https://fontawesome.com/license (Commercial License) Copyright 2023 Fonticons, Inc. --><path d="M528 48V304H48V48H528zM48 0H0V48 304v48H48 528h48V304 48 0H528 48zM96 416H0v96H96V416zm160 0H160v96h96V416zm64 0v96h96V416H320zm256 96V416H480v96h96z"/></svg>
